MB/img/svg/slider_control.svg

<svg width="20" height="38" viewBox="0 0 20 38" fill="none" xmlns="http://www.w3.org/2000/svg">
<path d="M19.6915 17.895L1.83089 0.31052C1.41036 -0.103507 0.735928 -0.103507 0.315398 0.31052C-0.105133 0.724548 -0.105133 1.38855 0.315398 1.80258L17.4143 18.6371L0.315398 35.4716C-0.105133 35.8856 -0.105133 36.5496 0.315398 36.9636C0.521696 37.1668 0.799405 37.2761 1.06918 37.2761C1.33895 37.2761 1.61666 37.1746 1.82296 36.9636L19.6836 19.3792C20.1041 18.973 20.1041 18.3012 19.6915 17.895Z" fill="#0A2D1E"/>
</svg>

<svg width="20" height="38" fill="none" xmlns="http://www.w3.org/2000/svg"><path d="M19.692 17.895L1.83.311a1.08 1.08 0 00-1.516 0 1.04 1.04 0 000 1.492l17.1 16.834-17.1 16.835a1.04 1.04 0 000 1.492c.207.203.484.312.754.312s.548-.101.754-.312l17.86-17.585a1.037 1.037 0 00.009-1.484z" fill="#0A2D1E"/></svg>
